X:1
T:Ch'il credera
T:Ch'il credera
T:Orlande de Lassus
C:Orlande de Lassus
%%score [ 1 2 [ 3 4 ] ]
L:1/8
Q:1/4=80
M:2/2
K:C
V:1 treble nm="Superius" snm="S"
V:2 treble nm="Altus" snm="A"
V:3 treble-8 nm="Tenor 1" snm="T 1"
V:4 treble-8 nm="Tenor 2" snm="T 2"
V:1
 z2 G2 A2 B2 | c4 z2 c2 | f3 f e2 d2 | d4 ^c4 | z4 z2 d2 | e2 f2 d2 c2 | z G_BB A2 c2 | %7
w: Ch'il cre- de-|ra per-|che lo di- ca'il|so- le,|splen-|dea ne'i cri- ni,|e' l'u- na'e l'al- tra|
 _B3 A/G/ A2 A2 | z2 B2 B2 ^c2 | d2 d2 e2 c2- | cc c2 BG g2- | gf ed cB A2- | AD d3 c cB/c/ | %13
w: ri- * * * va|mu- to sen-|za men- tir ha-|* bi- to'e sta- * *|||
 d2 A2 z2 d2- | d2 e2 ^f2 g2 | e2 d2 e2 f2- | f2 e2 d4 | c4 B4 | z2 c2 c2 c2 | d6 d2 | e3 e e2 e2 | %21
w: * to, co-|* me'i ce- le-|sti pie, toc- ca-|* ron lher-|* be,|e qua- si'al|sol na-|scen- te'in chia- ra|
 f4 e4 | z2 d2 d2 c2 | f4 e4 | d2 d2 cB AB | cd ef gf ed | cB AG ^F2 G2- | G2 ^F2 G4- | G8 |] %29
w: vo- ce,|gli'an- gei can-|ta- ra'al|suo lu- cen- * * *||* * * * te fo-|* * co.|_|
V:2
 G4 ^F2 G2 | A2 A2 A4- |"^b" A2 F2 G2 B2 | A4 A4 | z2 G2 A2 B2 | cB AG FG A2 | G2 z D FFEC | %7
w: cre- de- ra|per- che lo|_ di- ca'il so-|le, splen-|dea ne'i cri-|ni, * * * * * *|e' l'u- na'e l'al- tra ri-|
 D6 ^C2 | z2 ^G2 G2 A2 | A2 G2 G4 | z2 G3 G D2 | E2 A,2 C3 C | D2 A3 G E2 | ^F2 F2 G2 A2 | %14
w: va mu-|to sen- za|men- tir ha-|bi- to'e sta-|to, ha- bi- to'e|sta- to, * *|co- me'i ce- le-|
 B2 c2 A2 B2 | cc B2 E2 z C | D2 E2 AD G2- | GF/E/ F2 G4 | A4 A2 G2 | _B2 B2 A4 | c2 c4 c2 | %21
w: sti pie, toc ca-|ron lher- be toc- ca-|ron lher- be, * *|* * * * e|qua- si'al sol|na- scen- te'in|chia- ra vo-|
 c4 c4 | z2 _B2 A4- | A2 A2 A2 G2 |"^b""^b" B2 B2 A2 F2 | G2 C3 DEF | G2 E2 D2 D2 | D4 D4- | D8 |] %29
w: ce, gli'an-|gei can-|_ ta- r'al suo|lu- cen- te fo-|co, lu- _ _ _|_ cen- te fo-|co. Per-|_|
V:3
 z8 | z2 f2 f3 f | d4 c2 g2- | gf/e/ f2 e2 e2 | d2 e2 fe g2 | c4 z dff | ee g2 d2 z e | %7
w: |che lo di-|ca'il so- le,|* * * * splen- dea|ne'i cri- ni, * *|e l'u- na'e l'al-|tra ri- va, e l'u-|
 ggfd f2 e2 | z2 e2 e2 e2 | A2 B2 c2 e2- | ee e2 d2 B2 | z2 e3 e f2 | f4 e4 | d2 d2 e2 ^f2 | %14
w: na'e l'al- tra ri- va mu-|to sen- za|men- tir ha- bi-|* to'e sta- to, ha-|bi- to'e sta-|to, *|co- me'i ce- le-|
 g2 c2 d4 | z2 g2 g2 a2 | g4 f2 d2 | e2 c2 d2 d2 | f4 f2 e2 | f2 g4 ^f2 | g2 g4 g2 | a4 g4 | %22
w: sti pie, toc-|ca- ron lher-|be, toc- ca-|ron lher- be, e|qua- si'al sol|na- scen- te'in|chia- ra vo-|ce, gli'an-|
 z2 g2 f2 e2 | d2 c3 d ef | g2 f4 cd | ef g2 efgf | ed cB A2 _B2 | A4 G4- | G8 |] %29
w: gei can- ta-|r'al suo _ _ _|_ lu- cen- *|* * * te * * *|* * * * * fo-|co. il|_|
V:4
 z8 | z8 | z4 z2 G2 | d4 A2 A2 | B2 c2 A2 G2 |"^b""^b" z2 F2 BBAF | c2 G2 z DAA | GG _B2 A4 | %8
w: ||so-|le splen- dea|ne'i cri- ni, e|l'u- na'e l'al- tra ri-|va, e l'u- na'e l'al-|tra ri- va mu-|
 z2 E2 E2 A2 | ^F2 G2 C4 | c3 c G4 | c3 B AG FE | D4 A4 | D4 z4 | z4 z2 G2 | A2 B2 c2 A2 | %16
w: to sen- za|men- tir ha-|bi- to'e sta-|to, * * * * *||co-|me'i|ce- le- sti pie,|
 B2 c2 d2 B2 | A4 G4 | z2 F2 F2 c2 | _B2 G2 d4 | c2 c4 c2 | F4 c4 | z2 G2 d2 A2 | DE FG AB c2 | %24
w: toc- ca- ron lher-|be, e|qua- si'al sol|na- scen- te'il|chia- ra vo-|ce, gli'an-|gei can ta-|r'al * * * * * *|
"^b" G2 B2 F4 | C8 | C4 D4- | D4 G,4- | G,8 |] %29
w: suo lu- cen-|te|fo- co.|||

